src/assets/skills/visual-studio-code.svg

<svg fill="none" height="100" viewBox="0 0 100 100" width="100" xmlns="http://www.w3.org/2000/svg" xmlns:xlink="http://www.w3.org/1999/xlink"><linearGradient id="a" gradientUnits="userSpaceOnUse" x1="47.9561" x2="47.9561" y1="9.21856" y2="90.7828"><stop offset="0" stop-color="#fff"/><stop offset="1" stop-color="#fff" stop-opacity="0"/></linearGradient><path d="m86.099 17.8586-16.8933-8.13444c-1.9554-.94148-4.292-.54384-5.8265.99064l-55.30131 50.4218c-1.48806 1.3555-1.48533 3.6976.00409 5.0517l4.51612 4.1062c1.2188 1.1068 3.0526 1.1888 4.363.194l66.595-50.5201c2.2341-1.6958 5.4439-.1011 5.4439 2.7028v-.1968c0-1.9676-1.1273-3.7618-2.901-4.6158z" fill="#0065a9"/><path d="m86.099 82.1415-16.8933 8.1344c-1.9554.9415-4.292.5438-5.8265-.9907l-55.30131-50.4217c-1.48806-1.3555-1.48533-3.6976.00409-5.0518l4.51612-4.1061c1.2188-1.1082 3.0526-1.1888 4.363-.1941l66.595 50.5202c2.2341 1.6943 5.4439.1011 5.4439-2.7029v.1968c0 1.9677-1.1273 3.7618-2.901 4.6159z" fill="#007acc"/><path d="m69.207 90.2773c-1.9567.9401-4.2933.5425-5.8278-.992 1.8911 1.8911 5.1241.552 5.1241-2.1221v-74.3263c0-2.6741-3.233-4.01324-5.1241-2.1221 1.5345-1.53449 3.8711-1.93213 5.8278-.99202l16.8893 8.12212c1.775.854 2.9037 2.6496 2.9037 4.6186v55.0731c0 1.969-1.1287 3.7645-2.9037 4.6186z" fill="#1f9cf0"/><path clip-rule="evenodd" d="m65.1009 90.4331c1.2912.5028 2.7643.4714 4.0679-.1558l16.8796-8.1221c1.7737-.8541 2.901-2.6496 2.901-4.6186v-55.0731c0-1.9691-1.1273-3.7646-2.901-4.6186l-16.8796-8.12212c-1.7108-.8226-3.7127-.62173-5.2144.47002-.2132.1558-.4181.3307-.6094.522l-32.315 29.481-14.0744-10.6842c-1.3104-.9948-3.1428-.9141-4.3603.194l-4.51473 4.1062c-1.48806 1.3541-1.48942 3.6962-.0041 5.0517l12.20783 11.1365-12.20783 11.1366c-1.48532 1.3555-1.48396 3.6975.0041 5.0517l4.51473 4.1061c1.2175 1.1069 3.0499 1.1889 4.3603.1941l14.0744-10.6842 32.315 29.481c.511.511 1.1109.8964 1.7559 1.1478zm3.3655-59.0454-24.5194 18.6123 24.5194 18.6124z" fill="url(#a)" fill-rule="evenodd" opacity=".0625"/></svg>

<svg width="100" height="100" viewBox="0 0 100 100" fill="none" xmlns="http://www.w3.org/2000/svg">
<path d="M86.099 17.8586L69.2057 9.72416C67.2503 8.78268 64.9137 9.18032 63.3792 10.7148L8.07789 61.1366C6.58983 62.4921 6.59256 64.8342 8.08198 66.1883L12.5981 70.2945C13.8169 71.4013 15.6507 71.4833 16.9611 70.4885L83.5561 19.9684C85.7902 18.2726 89 19.8673 89 22.6712V22.4744C89 20.5068 87.8727 18.7126 86.099 17.8586V17.8586Z" fill="#0065A9"/>
<path d="M86.099 82.1415L69.2057 90.2759C67.2503 91.2174 64.9137 90.8197 63.3792 89.2852L8.07789 38.8635C6.58983 37.508 6.59256 35.1659 8.08198 33.8117L12.5981 29.7056C13.8169 28.5974 15.6507 28.5168 16.9611 29.5115L83.5561 80.0317C85.7902 81.726 89 80.1328 89 77.3288V77.5256C89 79.4933 87.8727 81.2874 86.099 82.1415V82.1415Z" fill="#007ACC"/>
<path d="M69.207 90.2773C67.2503 91.2174 64.9137 90.8198 63.3792 89.2853C65.2703 91.1764 68.5033 89.8373 68.5033 87.1632V12.8369C68.5033 10.1628 65.2703 8.82366 63.3792 10.7148C64.9137 9.18031 67.2503 8.78267 69.207 9.72278L86.0963 17.8449C87.8713 18.6989 89 20.4945 89 22.4635V77.5366C89 79.5056 87.8713 81.3011 86.0963 82.1552L69.207 90.2773Z" fill="#1F9CF0"/>
<path opacity="0.0625" fill-rule="evenodd" clip-rule="evenodd" d="M65.1009 90.4331C66.3921 90.9359 67.8652 90.9045 69.1688 90.2773L86.0484 82.1552C87.8221 81.3011 88.9494 79.5056 88.9494 77.5366V22.4635C88.9494 20.4944 87.8221 18.6989 86.0484 17.8449L69.1688 9.72278C67.458 8.90018 65.4561 9.10105 63.9544 10.1928C63.7412 10.3486 63.5363 10.5235 63.345 10.7148L31.03 40.1958L16.9556 29.5116C15.6452 28.5168 13.8128 28.5975 12.5953 29.7056L8.08057 33.8118C6.59251 35.1659 6.59115 37.508 8.07647 38.8635L20.2843 50L8.07647 61.1366C6.59115 62.4921 6.59251 64.8341 8.08057 66.1883L12.5953 70.2944C13.8128 71.4013 15.6452 71.4833 16.9556 70.4885L31.03 59.8043L63.345 89.2853C63.856 89.7963 64.4559 90.1817 65.1009 90.4331V90.4331ZM68.4664 31.3877L43.947 50L68.4664 68.6124V31.3877Z" fill="url(#paint0_linear_102_976)"/>
<defs>
<linearGradient id="paint0_linear_102_976" x1="47.9561" y1="9.21856" x2="47.9561" y2="90.7828" gradientUnits="userSpaceOnUse">
<stop stop-color="white"/>
<stop offset="1" stop-color="white" stop-opacity="0"/>
</linearGradient>
</defs>
</svg>
